apex/img/our-stats-item-icon2.svg

<svg width="73" height="73" viewBox="0 0 73 73" fill="none" xmlns="http://www.w3.org/2000/svg">
<path d="M69.5691 5.44956H40.0901V3.59012C40.0901 1.60741 38.4827 0 36.5 0C34.5173 0 32.9099 1.60741 32.9099 3.59012V5.44956H3.43097C2.17514 5.44956 1.15723 6.46748 1.15723 7.7233V54.3948C1.15723 55.6506 2.17514 56.6686 3.43097 56.6686H32.9099V61.6272L23.252 66.1587C21.4569 67.0012 20.6844 69.1387 21.5266 70.9338C22.3688 72.7288 24.5066 73.5012 26.3017 72.6592L33.0631 69.4869C33.5078 70.9646 34.8775 72.0417 36.5 72.0417C38.1225 72.0417 39.4923 70.9646 39.9369 69.4869L46.6983 72.6592C47.1914 72.8904 47.71 73 48.2208 73C49.5697 72.9998 50.8624 72.236 51.4734 70.9338C52.3157 69.1387 51.5431 67.0009 49.748 66.1587L40.0901 61.6275V56.6686H69.5691C70.8249 56.6686 71.8428 55.6506 71.8428 54.3948V7.7233C71.8428 6.46748 70.8246 5.44956 69.5691 5.44956ZM64.6626 49.4883H8.33746V12.6298H64.6623V49.4883H64.6626Z" fill="#E5A132"/>
<path d="M31.5012 40.2469L22.6856 34.9951L21.6855 34.0001L21.1855 33.0001C20.1855 30.0001 23.5358 27.1437 23.927 27.3769L32.8897 32.7163L46.9574 19.9082C48.4236 18.5739 50.6942 18.6797 52.029 20.1459C53.3638 21.6121 53.2573 23.8827 51.7914 25.2175L35.7555 39.8173C34.5868 40.8814 32.8593 41.0562 31.5012 40.2469Z" fill="#E5A132"/>
</svg>

<svg width="73" height="73" fill="none" xmlns="http://www.w3.org/2000/svg"><path d="M69.57 5.45H40.09V3.59a3.59 3.59 0 00-7.18 0v1.86H3.43a2.274 2.274 0 00-2.274 2.273v46.672a2.274 2.274 0 002.274 2.274h29.48v4.958l-9.658 4.532a3.59 3.59 0 003.05 6.5l6.761-3.172a3.59 3.59 0 006.874 0l6.761 3.172a3.591 3.591 0 003.05-6.5l-9.658-4.532V56.67h29.48a2.274 2.274 0 002.273-2.274V7.723a2.274 2.274 0 00-2.274-2.273zm-4.907 44.038H8.337V12.63h56.325v36.858z" fill="#E5A132"/><path d="M31.501 40.247l-8.815-5.252-1-.995-.5-1c-1-3 2.35-5.856 2.741-5.623l8.963 5.34 14.067-12.809a3.59 3.59 0 014.834 5.31l-16.035 14.6a3.59 3.59 0 01-4.255.429z" fill="#E5A132"/></svg>
